X:6
T:The Skylark
R:jig
C:Allie Bennett, S0CAN
O:contempory Cape Breton
D:Allie Bennett, It's About Time
Z:Paul Stewart Cranford (P.S.C.), <http://www.cranfordpub.com>
L:1/8
M:6/8
Q:288
K:G
D|G2 AB2 c|dBd gfg|ege dBG|cAA ABA|
G2 AB2 c|dBd gfg|efg afd|g3 g2:|
||B|:A2 B c2 A|Bcd gfg|ege dBG|[1cAA AcB|
A2 B c2 A|Bcd gfg|egB cAF|G3 GcB:|
[2cAA ABA|G2 AB2 c|dBd gfg|efg afd|g3 g2|]
